Newaita/actions/16/task-new.svg

<?xml version="1.0" encoding="UTF-8"?>
<svg xmlns="http://www.w3.org/2000/svg" xmlns:xlink="http://www.w3.org/1999/xlink" width="16pt" height="16pt" viewBox="0 0 16 16" version="1.1">
<defs>
<filter id="alpha" filterUnits="objectBoundingBox" x="0%" y="0%" width="100%" height="100%">
  <feColorMatrix type="matrix" in="SourceGraphic" values="0 0 0 0 1 0 0 0 0 1 0 0 0 0 1 0 0 0 1 0"/>
</filter>
<mask id="mask0">
  <g filter="url(#alpha)">
<rect x="0" y="0" width="16" height="16" style="fill:rgb(0%,0%,0%);fill-opacity:0.988235;stroke:none;"/>
  </g>
</mask>
<clipPath id="clip1">
  <rect x="0" y="0" width="16" height="16"/>
</clipPath>
<g id="surface5" clip-path="url(#clip1)">
<path style=" stroke:none;fill-rule:nonzero;fill:rgb(25.882354%,25.882354%,25.882354%);fill-opacity:1;" d="M 0.660156 4.09375 L 0.660156 14.015625 C 0.660156 14.75 1.25 15.339844 1.984375 15.339844 L 9.921875 15.339844 L 9.921875 14.347656 L 2.316406 14.347656 C 1.949219 14.347656 1.652344 14.050781 1.652344 13.6875 L 1.652344 4.09375 Z M 14.222656 4.09375 L 14.222656 9.71875 L 15.214844 9.71875 L 15.214844 4.09375 Z M 14.222656 4.09375 "/>
</g>
<mask id="mask1">
  <g filter="url(#alpha)">
<rect x="0" y="0" width="16" height="16" style="fill:rgb(0%,0%,0%);fill-opacity:0.988235;stroke:none;"/>
  </g>
</mask>
<clipPath id="clip2">
  <rect x="0" y="0" width="16" height="16"/>
</clipPath>
<g id="surface8" clip-path="url(#clip2)">
<path style=" stroke:none;fill-rule:nonzero;fill:rgb(61.176473%,80.000001%,39.607844%);fill-opacity:1;" d="M 1.984375 0.785156 C 1.25 0.785156 0.660156 1.375 0.660156 2.109375 L 0.660156 4.09375 L 15.214844 4.09375 L 15.214844 2.109375 C 15.214844 1.375 14.625 0.785156 13.890625 0.785156 Z M 2.976562 1.449219 C 3.527344 1.449219 3.96875 1.890625 3.96875 2.441406 C 3.96875 2.988281 3.527344 3.433594 2.976562 3.433594 C 2.425781 3.433594 1.984375 2.988281 1.984375 2.441406 C 1.984375 1.890625 2.425781 1.449219 2.976562 1.449219 Z M 12.898438 1.449219 C 13.449219 1.449219 13.890625 1.890625 13.890625 2.441406 C 13.890625 2.988281 13.449219 3.433594 12.898438 3.433594 C 12.351562 3.433594 11.90625 2.988281 11.90625 2.441406 C 11.90625 1.890625 12.351562 1.449219 12.898438 1.449219 Z M 12.898438 1.449219 "/>
</g>
</defs>
<g id="surface1">
<use xlink:href="#surface5" mask="url(#mask0)"/>
<use xlink:href="#surface8" mask="url(#mask1)"/>
<path style=" stroke:none;fill-rule:nonzero;fill:rgb(40.000001%,73.333335%,41.568628%);fill-opacity:1;" d="M 11.253906 6.410156 C 10.992188 6.148438 10.578125 6.148438 10.316406 6.410156 L 7.277344 9.449219 L 5.40625 7.578125 C 5.148438 7.320312 4.742188 7.308594 4.496094 7.550781 L 4.441406 7.605469 C 4.199219 7.851562 4.210938 8.253906 4.46875 8.515625 L 6.808594 10.851562 C 6.816406 10.859375 6.824219 10.867188 6.832031 10.875 C 6.832031 10.875 6.835938 10.878906 6.839844 10.878906 C 6.84375 10.882812 6.847656 10.886719 6.851562 10.890625 C 7.109375 11.113281 7.484375 11.113281 7.71875 10.878906 L 11.253906 7.34375 C 11.511719 7.085938 11.511719 6.667969 11.253906 6.410156 Z M 11.253906 6.410156 "/>
<path style=" stroke:none;fill-rule:nonzero;fill:rgb(40.000001%,73.333335%,41.568628%);fill-opacity:1;" d="M 12.734375 10.378906 C 12.367188 10.378906 12.074219 10.671875 12.074219 11.039062 L 12.074219 12.199219 L 10.914062 12.199219 C 10.546875 12.199219 10.253906 12.492188 10.253906 12.859375 C 10.253906 13.226562 10.546875 13.519531 10.914062 13.519531 L 12.074219 13.519531 L 12.074219 14.679688 C 12.074219 15.046875 12.367188 15.339844 12.734375 15.339844 C 13.101562 15.339844 13.394531 15.046875 13.394531 14.679688 L 13.394531 13.519531 L 14.554688 13.519531 C 14.921875 13.519531 15.214844 13.226562 15.214844 12.859375 C 15.214844 12.492188 14.921875 12.199219 14.554688 12.199219 L 13.394531 12.199219 L 13.394531 11.039062 C 13.394531 10.671875 13.101562 10.378906 12.734375 10.378906 Z M 12.734375 10.378906 "/>
</g>
</svg>

<svg xmlns="http://www.w3.org/2000/svg" xmlns:xlink="http://www.w3.org/1999/xlink" width="16pt" height="16pt" viewBox="0 0 16 16"><defs><filter id="a" filterUnits="objectBoundingBox" x="0%" y="0%" width="100%" height="100%"><feColorMatrix in="SourceGraphic" values="0 0 0 0 1 0 0 0 0 1 0 0 0 0 1 0 0 0 1 0"/></filter><mask id="e"><path fill-opacity=".988" d="M0 0h16v16H0z" filter="url(#a)"/></mask><clipPath id="b"><path d="M0 0h16v16H0z"/></clipPath><g id="d" clip-path="url(#b)"><path d="M.66 4.094v9.922c0 .734.59 1.324 1.324 1.324h7.938v-.992H2.316a.663.663 0 0 1-.664-.66V4.094zm13.563 0v5.625h.992V4.094zm0 0" fill="#424242"/></g><mask id="g"><path fill-opacity=".988" d="M0 0h16v16H0z" filter="url(#a)"/></mask><clipPath id="c"><path d="M0 0h16v16H0z"/></clipPath><g id="f" clip-path="url(#c)"><path d="M1.984.785A1.32 1.32 0 0 0 .66 2.11v1.985h14.555V2.109A1.32 1.32 0 0 0 13.89.785zm.993.664a.991.991 0 1 1-.992.992c0-.55.44-.992.992-.992zm9.921 0a.991.991 0 1 1-.992.992c0-.55.446-.992.992-.992zm0 0" fill="#9ccc65"/></g></defs><use xlink:href="#d" mask="url(#e)"/><use xlink:href="#f" mask="url(#g)"/><path d="M11.254 6.41a.658.658 0 0 0-.938 0L7.277 9.45l-1.87-1.872c-.259-.258-.665-.27-.91-.027l-.056.054c-.242.247-.23.649.028.91l2.34 2.337.023.023s.004.004.008.004l.012.012c.257.222.632.222.867-.012l3.535-3.535a.66.66 0 0 0 0-.934zm0 0M12.734 10.379a.657.657 0 0 0-.66.66v1.16h-1.16a.657.657 0 0 0-.66.66c0 .368.293.66.66.66h1.16v1.16c0 .368.293.66.66.66.368 0 .66-.292.66-.66v-1.16h1.16c.368 0 .66-.292.66-.66a.657.657 0 0 0-.66-.66h-1.16v-1.16a.657.657 0 0 0-.66-.66zm0 0" fill="#66bb6a"/></svg>
